packages/elements/bolt-icon/src/svgs/pencil.svg

<svg enable-background="new 0 0 32 32" viewBox="0 0 32 32" xmlns="http://www.w3.org/2000/svg"><path clip-rule="evenodd" d="m26.6 9.2-3.8-3.8c2.1-2.1 3.6-4 5.7-1.9s.2 3.6-1.9 5.7zm-18.1 18c-2.1 2.1-5.7 1.9-5.7 1.9s-.2-3.6 1.9-5.7l12.3-12.3 3.8 3.8zm16.2-16.1-1.9 1.9-3.8-3.8 1.9-1.9zm5.7-9.5c-3.1-3.1-6.3-1.3-9.5 1.9l-18 18c-3.2 3.2-2.9 10.5-2.9 10.5s7.3.3 10.4-2.8l18-18c3.2-3.2 5.1-6.4 2-9.6z" fill="#151619" fill-rule="evenodd"/></svg>

<?xml version="1.0" encoding="utf-8"?>
<!-- Generator: Adobe Illustrator 25.2.0, SVG Export Plug-In . SVG Version: 6.00 Build 0)  -->
<svg version="1.1" id="Layer_1" xmlns="http://www.w3.org/2000/svg" xmlns:xlink="http://www.w3.org/1999/xlink" x="0px" y="0px"
	 viewBox="0 0 32 32" style="enable-background:new 0 0 32 32;" xml:space="preserve">
<style type="text/css">
	.st0{fill-rule:evenodd;clip-rule:evenodd;fill:#151619;}
</style>
<path class="st0" d="M26.6,9.2l-3.8-3.8c2.1-2.1,3.6-4,5.7-1.9C30.6,5.6,28.7,7.1,26.6,9.2z M8.5,27.2c-2.1,2.1-5.7,1.9-5.7,1.9
	s-0.2-3.6,1.9-5.7l12.3-12.3l3.8,3.8L8.5,27.2z M24.7,11.1L22.8,13L19,9.2l1.9-1.9L24.7,11.1z M30.4,1.6c-3.1-3.1-6.3-1.3-9.5,1.9
	l-18,18C-0.3,24.7,0,32,0,32s7.3,0.3,10.4-2.8l18-18C31.6,8,33.5,4.8,30.4,1.6z"/>
</svg>
